X: 1
T: Andy de Jarlis' Jig v.2   [E]
C: trad.
S: Jerry Holland's Collection of Fiddle Tunes
R: jig
M: 6/8
L: 1/8
K: E
z2 |\
"E"EGB EGB | EGB "A"{B}c2B | "E"EGB EGB | "D"=DFA {A}B2A |\
"E"EGB EGB | EGB "A"{B}c2a | "B7"Tg2f Bcd | "E"{d}e6 :|
|: a |\
"E"gbg efg | "A"{g}b2a c3 | "F#m"f2g Tf2e | "B7"dcB Tc2B |\
"E"gbg efg | "A"{g}b2a c2a | "B7"Tg2f Bcd | "E"{d}e6 :|

%%sep 1 1 500
